packages/foundations/assets/icons/functional/images/social/face_delighted_32.svg

<svg xmlns="http://www.w3.org/2000/svg" width="32" height="32" fill="none"><g clip-path="url(#a)"><path fill="#1A1C1F" fill-rule="evenodd" d="M26.307 16c0 5.683-4.624 10.307-10.307 10.307S5.693 21.683 5.693 16 10.317 5.693 16 5.693 26.307 10.317 26.307 16M4 16c0 6.627 5.373 12 12 12s12-5.373 12-12S22.627 4 16 4 4 9.373 4 16m6.064 2.222a1 1 0 0 1 1.359-1.145c.022.01 2.258.924 4.577.924s4.555-.914 4.577-.924a1 1 0 0 1 1.359 1.145C21.56 19.875 19.834 23 16 23s-5.56-3.125-5.936-4.778m2.922 1.416C13.593 20.353 14.545 21 16 21s2.406-.647 3.014-1.362c-.878.199-1.929.362-3.014.362s-2.135-.163-3.014-.362m.435-5.863a.998.998 0 1 0 1.217-1.586 4 4 0 0 0-5.609.738 1 1 0 1 0 1.587 1.216 2.007 2.007 0 0 1 2.805-.368m9.589-.847a3.97 3.97 0 0 0-2.651-1.531 3.97 3.97 0 0 0-2.957.793 1 1 0 1 0 1.217 1.586 1.98 1.98 0 0 1 1.479-.396c.529.069 1 .341 1.325.765a1 1 0 0 0 1.402.185 1 1 0 0 0 .185-1.402" clip-rule="evenodd"/></g><defs><clipPath id="a"><path fill="#fff" d="M0 0h32v32H0z"/></clipPath></defs></svg>

<svg width="32" height="32" viewBox="0 0 32 32" fill="none" xmlns="http://www.w3.org/2000/svg">
<g clip-path="url(#clip0_187_341)">
<path fill-rule="evenodd" clip-rule="evenodd" d="M26.307 16C26.307 21.683 21.683 26.307 16 26.307C10.317 26.307 5.693 21.683 5.693 16C5.693 10.317 10.317 5.693 16 5.693C21.683 5.693 26.307 10.317 26.307 16ZM4 16C4 22.627 9.373 28 16 28C22.627 28 28 22.627 28 16C28 9.373 22.627 4 16 4C9.373 4 4 9.373 4 16ZM10.064 18.222C9.981 17.858 10.109 17.478 10.395 17.237C10.68 16.996 11.077 16.934 11.423 17.077C11.445 17.087 13.681 18.001 16 18.001C18.319 18.001 20.555 17.087 20.577 17.077C20.924 16.934 21.32 16.996 21.605 17.237C21.89 17.478 22.019 17.858 21.936 18.222C21.56 19.875 19.834 23 16 23C12.166 23 10.44 19.875 10.064 18.222ZM12.986 19.638C13.593 20.353 14.545 21 16 21C17.455 21 18.406 20.353 19.014 19.638C18.136 19.837 17.085 20 16 20C14.915 20 13.865 19.837 12.986 19.638ZM13.421 13.775C13.859 14.112 14.487 14.029 14.823 13.59C15.159 13.152 15.076 12.525 14.638 12.189C12.887 10.844 10.371 11.176 9.029 12.927C8.693 13.365 8.776 13.992 9.214 14.328C9.396 14.468 9.61 14.535 9.822 14.535C10.122 14.535 10.419 14.4 10.616 14.143C11.288 13.271 12.546 13.105 13.421 13.775ZM23.01 12.928C22.36 12.08 21.418 11.536 20.359 11.397C19.301 11.256 18.25 11.539 17.402 12.19C16.964 12.526 16.881 13.154 17.217 13.591C17.554 14.03 18.182 14.112 18.619 13.776C19.043 13.451 19.566 13.309 20.098 13.38C20.627 13.449 21.098 13.721 21.423 14.145C21.62 14.402 21.917 14.537 22.217 14.537C22.429 14.537 22.644 14.47 22.825 14.33C23.263 13.993 23.346 13.365 23.01 12.928Z" fill="#1A1C1F"/>
</g>
<defs>
<clipPath id="clip0_187_341">
<rect width="32" height="32" fill="white"/>
</clipPath>
</defs>
</svg>
